z_dist/img/icons/crypto/kusama-KSM.svg

<svg width="64" height="64" viewBox="0 0 64 64" fill="none" xmlns="http://www.w3.org/2000/svg">
<g clip-path="url(#clip0_582_664899)">
<rect y="0.000488281" width="64" height="64" rx="4" fill="black"/>
<path d="M54.185 18.3079C53.4287 17.7115 52.5269 16.897 50.8832 16.6934C49.3414 16.4897 47.7705 17.5224 46.7087 18.2061C45.6469 18.8897 43.6396 20.897 42.8105 21.5079C41.9814 22.1188 39.8578 22.6861 36.4396 24.737C33.0214 26.7879 19.6105 35.3988 19.6105 35.3988L23.1014 35.4424L7.53776 43.457H9.09413L6.85413 45.1588C6.85413 45.1588 8.83231 45.6824 10.4905 44.6352V45.1152C10.4905 45.1152 29.0214 37.8134 32.5996 39.7043L30.4178 40.3443C30.6069 40.3443 34.1269 40.577 34.1269 40.577C34.2123 41.3059 34.4573 42.007 34.8445 42.6305C35.2316 43.254 35.7514 43.7845 36.3669 44.1843C38.4905 45.5806 38.5341 46.3515 38.5341 46.3515C38.5341 46.3515 37.4287 46.8024 37.4287 47.3697C37.4287 47.3697 39.0578 46.8752 40.5705 46.9188C41.5306 46.9552 42.4828 47.1066 43.4069 47.3697C43.4069 47.3697 43.2905 46.7588 41.8214 46.3515C40.3523 45.9443 38.8978 44.3443 38.185 43.4715C37.7485 42.916 37.4639 42.2565 37.3594 41.5577C37.2548 40.859 37.3338 40.1451 37.5887 39.4861C38.0978 38.1624 39.8723 37.4352 43.5378 35.5443C47.8578 33.3043 48.8469 31.6461 49.4578 30.3515C50.0687 29.057 50.9705 26.4824 51.4796 25.2752C52.1196 23.7188 52.905 22.8897 53.5596 22.3952C54.2141 21.9006 57.1232 20.8097 57.1232 20.8097C57.1232 20.8097 54.8978 18.8752 54.185 18.3079Z" fill="white"/>
</g>
<defs>
<clipPath id="clip0_582_664899">
<rect width="64" height="64.0002" fill="white" transform="translate(0 0.000244141)"/>
</clipPath>
</defs>
</svg>

<svg width="64" height="64" fill="none" xmlns="http://www.w3.org/2000/svg"><g clip-path="url(#clip0_582_664899)"><rect width="64" height="64" rx="4" fill="#000"/><path d="M54.185 18.308c-.756-.596-1.658-1.411-3.302-1.615-1.542-.203-3.113.83-4.174 1.513-1.062.684-3.07 2.691-3.899 3.302-.829.61-2.952 1.178-6.37 3.229-3.419 2.05-16.83 10.662-16.83 10.662l3.491.043-15.563 8.015h1.556l-2.24 1.702s1.978.523 3.637-.524v.48s18.53-7.302 22.109-5.41l-2.182.64c.189 0 3.709.232 3.709.232a4.994 4.994 0 002.24 3.607c2.123 1.397 2.167 2.168 2.167 2.168s-1.105.45-1.105 1.018c0 0 1.629-.495 3.142-.451.96.036 1.912.188 2.836.45 0 0-.116-.61-1.586-1.017-1.469-.408-2.923-2.008-3.636-2.88a4.072 4.072 0 01-.596-3.986c.509-1.324 2.283-2.05 5.949-3.942 4.32-2.24 5.309-3.898 5.92-5.192.61-1.295 1.513-3.87 2.022-5.077.64-1.556 1.425-2.385 2.08-2.88.654-.494 3.563-1.585 3.563-1.585s-2.225-1.935-2.938-2.502z" fill="#fff"/></g><defs><clipPath id="clip0_582_664899"><path fill="#fff" d="M0 0h64v64H0z"/></clipPath></defs></svg>
